X:1
T:Title
%%score { ( 1 4 ) | ( 2 3 5 ) }
L:1/8
M:4/4
K:Ab
V:1 treble nm="Grand Piano"
V:4 treble 
V:2 bass 
V:3 bass 
V:5 bass 
V:1
 z4 z2[Q:1/4=108] E2 | A2 G2 F2 EE | d2 d2 c2 [GB][GB] | [FA]2 [=EG]2 F2 FF | %4
[M:9/8] [=DB]2 [DB]- [DB] [G,E]2- [G,E][A,EF][B,EG] |[M:4/4] [CEA]2 [CEG][CEG] [DF]2 [CE]2 | %6
 [Fd]2 [Fd]2 [Ec]2 [Ec][Ec] | [EB][EB] [EA]2 [EG]2 z F | %8
[M:9/8] .[B,EG]3 [A,F] [G,E]2- [G,E] [G,=DE]2 |[M:4/4] A6 z2 | A6 z2 | [Ec]2 [Ec]2 [Fd]2 [Ec]2 | %12
 [=Dc]2 [DB]2 [_DB]2 [G,DE]2 | CF E>D C2 F>G |[M:7/8] A-[FA-][EA-]>[DA-] [CA]3 |] %15
V:2
 z4 z2 E,2 | [A,CE]2 [A,CE]2 [A,D]2 [A,C][K:treble][A,C] | %2
 [A,F]2 [A,F]2[K:bass] [A,E]2 [E,D][E,D] | z4 z2 .D2 | %4
[M:9/8] [B,,A,]2 [B,,A,]- [B,,A,] E,2- E,E,E, |[M:4/4] A,,2 A,,A,, [A,,A,]2 [A,,A,]2 | %6
 [A,,A,]2 [A,,A,]2 [A,,A,]2 [A,,A,][A,,A,] | z4 z2 .G,2 |[M:9/8] z2 =D- D z z z3 | %9
[M:4/4] z D A,,>A,, [A,,A,]2 [E,B,]2 | z D A,,>A,, A,,2 [A,,A,][A,,A,] | %11
 [A,,A,]2 [A,,A,]2 [A,,A,]2 [A,,A,]2 | [B,,A,]2 [B,,A,]2 [E,G,]2 E,2 | z4 z2 [E,G,]2 | %14
[M:7/8] z DC>B, A,3 |] %15
V:3
 x8 | x7[K:treble] x | x4[K:bass] x4 | [F,C]2 [C,B,]2 [D,A,]2 [D,A,]-[D,A,D] |[M:9/8] x9 | %5
[M:4/4] x8 | x8 | [E,G,][D,G,] [C,A,]2 [B,,B,]2 B,,-[B,,A,] |[M:9/8] z3 B,, E,2- E, E,2 | %9
[M:4/4] A,,2 z2 z4 | A,,2 z2 z4 | x8 | x8 | A,,D, [C,A,]>[B,,A,] [A,,E,]2 D->[E,B,D] | %14
[M:7/8] A,,-A,,-A,,- A,,- A,,3 |] %15
V:4
 x8 | x8 | x8 | x8 |[M:9/8] x9 |[M:4/4] x8 | x8 | z4 z2 E2 |[M:9/8] x9 | %9
[M:4/4] [A,C]F [CE]>[B,D] C2 F>G | [A,C]F [CE]>[B,D] [A,C]2 [CA][DB] | x8 | x8 | [A,A-]2 A4 z2 | %14
[M:7/8] [A,C] z z z z z2 |] %15
V:5
 x8 | x7[K:treble] x | x4[K:bass] x4 | x8 |[M:9/8] x9 |[M:4/4] x8 | x8 | x8 |[M:9/8] B,,3 z3 z3 | %9
[M:4/4] x8 | x8 | x8 | x8 | x8 |[M:7/8] x7 |] %15

